assets/icons/favorite_dark.svg

<?xml version="1.0" encoding="utf-8"?><!-- Uploaded to: SVG Repo, www.svgrepo.com, Generator: SVG Repo Mixer Tools -->
<svg width="800px" height="800px" viewBox="0 0 24 24" fill="none" xmlns="http://www.w3.org/2000/svg">
<path d="M4.45067 13.9082L11.4033 20.4395C11.6428 20.6644 11.7625 20.7769 11.9037 20.8046C11.9673 20.8171 12.0327 20.8171 12.0963 20.8046C12.2375 20.7769 12.3572 20.6644 12.5967 20.4395L19.5493 13.9082C21.5055 12.0706 21.743 9.0466 20.0978 6.92607L19.7885 6.52734C17.8203 3.99058 13.8696 4.41601 12.4867 7.31365C12.2913 7.72296 11.7087 7.72296 11.5133 7.31365C10.1304 4.41601 6.17972 3.99058 4.21154 6.52735L3.90219 6.92607C2.25695 9.0466 2.4945 12.0706 4.45067 13.9082Z" fill="#222222" stroke="#222222" stroke-width="2"/>
</svg>

<svg xmlns="http://www.w3.org/2000/svg" width="800" height="800" fill="none" viewBox="0 0 24 24"><path fill="#222" stroke="#222" stroke-width="2" d="m4.45 13.908 6.953 6.531c.24.225.36.338.5.366a.5.5 0 0 0 .193 0c.142-.028.261-.14.5-.366l6.953-6.53a5.203 5.203 0 0 0 .549-6.983l-.31-.399c-1.968-2.536-5.918-2.111-7.301.787a.54.54 0 0 1-.974 0C10.13 4.416 6.18 3.99 4.212 6.527l-.31.4a5.203 5.203 0 0 0 .549 6.981Z"/></svg>
